X:1
T:The White Petticoat
B:O'Neill's 1850, #773
Z:modified and chorded by Moshe Braner, 2001
D:Solas
D:Patrick Street: Cornerboys
D:Planet Squeezebox, disc 1, track 13
R:jig
M:6/8
L:1/8
K:Em
"Em"Bed cBA|GFE B,EG|"B7"FBB cBB|eBB cBB|
"Em"Bed cBA|GFE B,EG|"B7"FFB cBA|1 GED E3 :|2 GED E3 ||
|: "C"gec Gce|gaf gec|"Am"cBA EAc|"Em"Be^d eBG|
"Am(B7)"FBB "Em"GBB|"B7(Am)"FcA GFE|"B7"B,^DF cBA|GED E3:|
